icons/karma/karma-plain.svg

<svg xmlns="http://www.w3.org/2000/svg" viewBox="0 0 128 128">
    <path fill="#56C5A8" d="M 77.28125 89.582031 L 96.90625 127.421875 L 127.925781 127.421875 L 92.773438 60.28125 L 77.28125 89.582031 M 14.746094 109.871094 L 29.113281 92.375 L 52.085938 127.421875 L 37.339844 57.121094 L 24.890625 83.59375 L 14.746094 109.871094 M 14.746094 109.871094 L 37.339844 57.117188 L 22.976562 74.625 L 0 39.574219 L 14.746094 109.871094 M 124.96875 0.390625 L 93.949219 0.390625 L 74.949219 36.675781 L 74.949219 0.390625 L 46.492188 0.390625 L 46.492188 38.023438 L 61.664062 110.304688 L 65.199219 127.421875 L 74.949219 127.421875 L 74.949219 95.664062 L 124.96875 0.390625 "/>
</svg>

<svg xmlns="http://www.w3.org/2000/svg" viewBox="0 0 128 128"><path fill="#56C5A8" d="M77.281 89.582l19.625 37.84h31.02l-35.153-67.14-15.492 29.3m-62.535 20.29l14.367-17.497 22.973 35.047-14.746-70.3-12.45 26.472-10.144 26.277m0 0L37.34 57.117 22.977 74.625 0 39.575l14.746 70.296M124.97.391h-31.02l-19 36.285V.39H46.492v37.632l15.172 72.282 3.535 17.117h9.75V95.664L124.97.391"/></svg>
